X:1
T:Title
%%score { ( 1 4 ) | ( 2 3 ) }
L:1/8
Q:1/4=100
M:4/4
K:C
V:1 treble nm="Grand Piano"
V:4 treble 
V:2 bass 
V:3 bass 
V:1
 [CE]F^FG c2 G2 | z4 [FA]4 | [B,D]EFG [GB]2 [FA]2 | z4 [EG]4 | [CE]F^FG [Ge]2 [Ec]2 | z4 [FA]4 | %6
w: Adam~Geibel * * * * *||||||
 dcBA cEF^F | A2 [B,G]2 C4 | GABc d2 G2 | [Ee][Ee][_Ec][EA] [=EG]4 | [FA][Ac][GB][FA] [EG][Ec]cd | %11
w: |||||
 e2 d2 [Ec]4 |] %12
w: |
V:2
 z D_E=E [E,G,CE]2 [E,G,CE]2 | z[K:treble] FFE[K:bass] F,2 F,2 | z CDE [F,G,B,]2 [F,G,B,]2 | %3
 z EE_E E,2 E,2 | z D_E=E [E,G,C]2 [E,G,C]2 | z[K:treble] FFE[K:bass] F,2 F,2 | DCB,A, CE,F,^F, | %7
 A,2 [G,,F,]2 [C,E,]4 | [G,B,F][G,CF][G,DF][G,CF] [G,B,F]2 [G,B,F]2 | %9
 [C,C][C,G,][C,^F,][C,C] [C,C]4 | [F,C][F,C][F,C][F,C] [C,C][C,C][K:treble][A,CE][^G,C^F] | %11
 [G,CG]2 [G,B,F]2[K:bass] [C,C]4 |] %12
V:3
 C,2 [E,G,C]2 z4 | F,,2[K:treble] [F,A,D]2[K:bass] z4 | G,,2 [F,G,B,]2 z4 | C,2 [E,G,C]2 z4 | %4
 C,2 [E,G,C]2 z4 | F,,2[K:treble] [F,A,D]2[K:bass] z4 | x8 | x8 | x8 | x8 | x6[K:treble] x2 | %11
 x4[K:bass] x4 |] %12
V:4
 x8 | [GB]AA^G [A,D]2 [A,D]2 | x8 | [FA]GG^F [G,C]2 [G,C]2 | x8 | [GB]AA^G [A,D]2 [A,D]2 | x8 | %7
 x8 | x8 | x8 | x8 | x8 |] %12

